[mml-score]
version=1
title=
author=
time=4/4
tempo=0T138
mml-track=MML@t138v11>>c6l12c<a+6a+a6ag6gf2>f4r4<f6fgv6gv11ga6af6fa+6a+a6ag2e6efv6fv11fg6gc6ca6ag6gf2f6fgv6gv11ga6af6fa+6a+a6ag2e6efv6fv11fg6gc6ca6ag6gf2>d6c<a+6>cd2c6<a+a6a+b+2a+6ag6aa+6a+a+6a+a6aa+6a+b6b>c4d6c<a+6>cd2c6<a+a6a+b+2a+6ag6aa+6a+e6ef6c<a6>cf4r4>ccccr6ccccr6<a+4a6ag2a+a+a+a+r6a+a+a+a+r6a4g6gf2f8g8a8f8a+a+24v9av11a24g4e8f8g8c8aa24v9gv11g24f4f8g8a8f8a+a+24v9av11a24g4e8f8g8c8aa24v9gv11g24f4f4g4a6af6fa+4a6ag2e4f4g6gc6ca2g3g6f2r16>f4&f8.,v11<aaggffffrcrfrfrgrcrerfrcrcrfrfrgrcrerfrcra+ra+rarargrgrfrgra+ra+rarargrgrcrcrarargrergrgrfrcl8rcrfrfrdrcrerfrcrcrfrfrdrcrerfrcl4rcrfrfrdrcrel2rfcr32>>d4.&d16.,v11<ccdeac<fffafb+a+>d<g>d<cgcb+fb+fafafb+a+>d<g>d<cgcb+fb+faa+>fn34f<f>f<f>f<g>d<g>d<fb+g+aa+>fn34f<f>f<f>f<g>dce<fafaf>f<f>fce<cb+c>ece<fb+fal8fafb+a+>d<ga+cgcb+fb+fafafb+a+>d<ga+cgcb+fb+fal4fafb+a+>d<ga+cgcb+l2fb+4.r8f>>f;
name=Track1
program=0
songProgram=-2
panpot=64
visible=true
mml-track=MML@t138v11>c6l12c<a+6a+a6ag6gf2>f4r4<f6fgv6gv11ga6af6fa+6a+a6ag2e6efv6fv11fg6gc6ca6ag6gf2f6fgv6gv11ga6af6fa+6a+a6ag2e6efv6fv11fg6gc6ca6ag6gf2>d6c<a+6>cd2c6<a+a6a+b+2a+6ag6aa+6a+a+6a+a6aa+6a+b6b>c4d6c<a+6>cd2c6<a+a6a+b+2a+6ag6aa+6a+e6ef6c<a6>cf4r4>ccccr6ccccr6<a+4a6ag2a+a+a+a+r6a+a+a+a+r6a4g6gf2f8g8a8f8a+a+24v9av11a24g4e8f8g8c8aa24v9gv11g24f4f8g8a8f8a+a+24v9av11a24g4e8f8g8c8aa24v9gv11g24f4f4g4a6af6fa+4a6ag2e4f4g6gc6ca2g3g6f2r16>f4&f8.,,;
name=Track2
program=0
songProgram=-1
panpot=64
visible=true
[marker]
8448=tempo1
9984=tempo2
11136=tempo3
