[mml-score]
version=1
title=
author=
time=4/4
tempo=0T115
mml-track=MML@t115v14>fl16r<fa+>cr.c+32d8cr<a+ra8r8a+rb+f4&fr4>f4r<fa+>cr.c+32d8cr<a+ra8.ra+rb+a+4&a+r4>f4r<fa+>cr.c+32d8cr<a+ra8r8a+rb+f4&fr4>f4r<fa+>cr.c+32d8cr<a+ra8.ra+rb+a+4&a+r4.>frf8rfrfd+rdrd+rf8r8a8rf8r8.>ara+rfr<frf8rfrfd+rdrd+rf8c8<a8f8b4.b>cdrdrdrdd8rc8<a+8g8r.>c+32drdrdrdcrd8rfrg2r4d8<a+8>c2r4d8<a+8>c1r1f4r<fa+>cr.c+32d8cr<a+ra8r8a+rb+f4&fr4>f4r<fa+>cr.c+32d8cr<a+ra8.ra+rb+a+4&a+r4>f4r<fa+>cr.c+32d8cr<a+ra8r8a+rb+f4&fr4>f4r<fa+>cr.c+32d8cr<a+ra8.ra+rb+a+4&a+r4.>frf8rfrfd+rdrd+rf8r8a8rf8r8.>ara+rfr<frf8rfrfd+rdrd+rf8c8<a8f8b4.b>cdrdrdrdd8rc8<a+8g8r.>c+32drdrdrdcrd8rfrg2r4d8<a+8>c2r4d8<a+8>c1r8>drdrdrdcr<a+8rb+ra+4.r2.frfrfrfd+rd8rd+rd32d+32d&d4.r2r8frfrgrfd+r32c+32d8rd+rc2.r4.<a+rb+ra+>d+rd+drcrc+rd2r4.d+rd8rf8rg8rd+8rf8a8a+8f8a+8fb+r4a+8>crdr8<a+r8frg8a+rb+8a+r>f8<f8a+8fb+r4a+8>c8dr8d+r8drc8drc8<a+8fr<f8a+8fb+r4a+8>c8dr8<a+r8frg8a+rb+8a+r>fr<f8a+8fb+r4a+8>c8drn58d+rn58dn58c8drc8n58rfr<f8a+8fb+r4a+8>c8dr8<a+r8frg8a+rb+8a+r>fr<f8a+8fb+r4a+8>c8dr8d+r8drc8drc8<a+,,rl16rv11o7fa+>cr.c+32d8cr<a+ra8r8a+rb+fo4a+r>fra+rfr4.>>fa+>cr.c+32d8cr<a+ra8.ra+rb+a+o4gr>drgrdr4.>>fa+>cr.c+32d8cr<a+ra8r8a+rb+fo4a+r>fra+rfr4.>>fa+>cr.c+32d8cr<a+ra8.ra+rb+a+o4gr>drgrdr8.drd8rdrdcr<a+rb+ra8r8a8r>c8r8.>>ara+rfr<<drd8rdrdcr<a+rb+r<g2>f4.gaa+ra+ra+ra+a+8ra8g8d+8r8a+ra+ra+ra+arg8rara+2r1.r1.r2.ro7fa+>cr.c+32d8cr<a+ra8r8a+rb+fo4a+r>fra+rfr4.>>fa+>cr.c+32d8cr<a+ra8.ra+rb+a+o4gr>drgrdr4.>>fa+>cr.c+32d8cr<a+ra8r8a+rb+fo4a+r>fra+rfr4.>>fa+>cr.c+32d8cr<a+ra8.ra+rb+a+o4gr>drgrdr8.drd8rdrdcr<a+rb+ra8r8a8r>c8r8.>>ara+rfr<<drd8rdrdcr<a+rb+r<g2>f4.gaa+ra+ra+ra+a+8ra8g8d+8r8a+ra+ra+ra+arg8rara+2r4a+8f8g2r4a+8g8a1r1r8v12>>d+rg+rd+>d+rd+drcr<a+r8.d+rg+rd+>d+rd+drd+r4r<fra+rf>d+rd+drcr<a+r8.fra+rf>d+rd+dr19.d+rfr9r<d+rg+rd+>d+rd+drcr<a+r8.d+rg+rd+>d+rd+drd+r4r<fra+rf>d+rd+drcr<a+rv11d8rf8rg8rd+8rf8a8a+8r8d8rd+r4f8r8n70r8.drfd+g8a+rb+8a+ra+8r8d8rd+r4f8r8n70r8.dr2r8.fr<f8a+8fb+r4a+8>c8dr8<a+r8frg8a+rb+8a+r>fr<f8a+8fb+r4a+8>c8drn70d+rn70dn70c8drc8n70rfr<f8a+8fb+r4a+8>c8dr8<a+r8frg8a+rb+8a+r>fr<f8a+8f>c;
name=lead melody
program=21
songProgram=-2
panpot=64
visible=true
mml-track=MML@t115v12l8o1d+r2d+raa+r4a+16a+r.brd+r2drff+rf+r16gr4r.d+r2d+raa+r4a+16a+r.brd+r2drff+r7f+r21gr4r.d+l16ra+8rd+8rd+8ra+8d+8d+8rb+8rd+8rd+8rb+8d+8<a8r>a8r<a8ra8r>f8a8g2.&g7r9<g8r>g8r<g8rg8r>c8d+8<a8r>a8r<a8ra8r>f8a8d+8ra+8rd+8rd+8rd+8c8c8rc8rc8rc8rc8c8fr4rfr8fr4.fr8fr8frfr4l8r.d+r2d+raa+r4a+16a+r.brd+r2drff+rf+r16gr4r.d+r2d+raa+r4a+16a+r.brd+r2drff+rf+l16rg8rr4.d+8ra+8rd+8rd+8ra+8d+8d+8rb+8rd+8rd+8rb+8d+8<a8r>a8r<a8ra8r>f8a8g2.&g7r9<g8r>g8r<g8rg8r>c8d+8<a8r>a8r<a8ra8r>f8a8d+8ra+8rd+8rd+8rd+8c8c8rb+8rc8rc8rc8c8f8rb+8rf8rf8rf8f8f8r2r4.g+8rg+8rg+8rg+8rg+8d+fg+8rg+8rg+8rg+8rg+8a8a+8ra+8ra+8ra+8ra+8fga+8ra+8ra+8ra+8ra+8b+8g+8rg+8rg+8rg+8rg+8d+fg+8rg+8rg+8rg+8rg+8a8a+8ra+8ra+8ra+8ra+8fga+8ra+8r>c8rc8rf8f8r4o5d8rd+r8d+rf8r8n58r8.dr8d+r8d+rf8r8a+8r8d8rd+r8d+rf8r8n58ra+rda+rd+r8d+rffffr8o1a+rdra+d+ra+d+rfrcrn10ra+rdra+d+ra+d+rfrcrn10ra+rdra+d+ra+d+rfrcrn10ra+rdra+d+ra+d+rfrcrn10ra+rdra+d+ra+d+rfrcrn10ra+rdra+d+ra+d+rfrcrn10ra+rdra+d+ra+d+rl4fd+rl8fr>c,,;
name=bass
program=34
songProgram=-1
panpot=64
visible=true
mml-track=MML@t115v12<gl16rgra+8rn34rgd+fra7r9dr8fr8a+r>dr<a+rg4r8.dr8dr8>cr8c8r8cr8d8rn46rgr<a+rd+4rgr<a+8r>grn34d+dra7r9fr8fr8a+rc-ra+rg4r8.dr8b+r8dr8b+8r8f+r8a+8ra+r>a+rgr<d+r8a+r8d+r8<f+rf+>>f8<a+r<fr8>cr8>cr8n29rcf8<<frar8n53r8ardaddfrarg2&g4.r8>cr8gr8cr8cra+a+rgr>cr8cr8cr8<<ar8n48rar>>dr8n39r8dr8gr8grdr<cr8cr8cr8>er8er<crfr<f>>cr8c<<fr8>b+rfr>fr<fr<f>fr<f>>grcrc+r<fr8.g4rgr<a+8ra+ra+>gfra7r9dr8fr8a+r>dr<a+rg4r8.>cr8cr8<dr8d8r8>cr8d8rn46rgr<a+rg4rn34ra+8rgrn34gdra7r9dr8fr8a+r>dr<a+rd+4r8.b+r8dr8dr8b+8r8f+r8>d8rn46ra+rgr<<f+r8a+r8f+r8>d+rd+a+8a+r<fr8>cr8>cr8crcf8<<fr>ar8>fr8<ar<daddfrarg2&g4.r8>gr8gr8cr8crga+rgr<ar8>>cr8cr8cr8crn33rdr8fr8gr8gr8drdr<cr8>er8<cr8cr8crcrfr<f>b+r8fb+r8frb+rfrn49r2.r8.a+r<g+32r32>gr8gr8gr<g+32r32n46rg+a+>g19.r9gr8cr8cd+rcrgra+rn34fr8dr8drn34grn34ca+rn34>dr8<dr8>dr8d8<d+8>c8rcr8<d+r8b+rn32d+r<d+f>b+r8d+r8>cr8cr8<c8d8d8n34dr8dr8drn34a+r<fg+a+r8>a+r8d+r8a+r8d+rd+8r1.r1.r1<a+8>f8d8fd+rfd+rfra+8<a+8>f8d8fd+rfd+rfra+8<a+8>f8d8fd+rfd+rfra+8<a+8>f8d8fd+rfd+rfra+8<a+8>f8d8fd+rfd+rfra+8<a+8>f8d8fd+rfd+rfra+8<a+8>f8d8fd+rfd+rfrl8fd+2fr>c,v12<a+l16rd+rg8rgrn34a+drf7r9cr8dr4c-r8.a+4r8.fr8fr8ar8a8r8ar8>f8rr4.<a+4rd+rd+8rn34rga+frf7r9n34r8dr4>dr8.<a+4r8.fr8ar8fr8a8r8ar8g8rr4.>dr8dr8dr8<a+ra+<a+8>>dr<d+r8d+r8ar8d+rab+8d+rb+r8dr8>cr8cr8<ar1r8.>dr8n46r8dr8dr<ggra+rar8ar8ar8f+r8ardra+r8n34r8a+r8<d+r8d+r>a+rer8er8er8>dr8dr<er>frcfr8fcr8frfrcrgrcc+rcc+rn29rgrgr8.<a+4rd+rd+8rgrga+drf7r9cr8dr4c-r8.a+4r8.ar8ar8fr8f+8r8ar8>f8rr4.<a+4rd+rg8rn34rga+frf7r9cr8dr4c-r8.a+4r8.ar8fr8fr8a8r8ar8>f8rr4.n46r8fr8n46r8drdd8dr<d+r8d+r8ar8arab+8d+rdr8dr8dr8b+r8ar1r8.a+r8a+r8>dr8dr<a+gra+rf+r8ar8ar8ar8ardra+r8>dr8<<d+r8d+r8>a+ra+rer8>dr8<er8er8erer>frcfr8fn29r8frfrcrgr2.r8.<gr8d+r8d+r8d+r8crdcd+19.r9d+r8d+r8d+r8grdrf8rdr8fr8fr8a+r8.>dr8<a+r8fr8a+r8a+8g8g8rgr8gr8gr8gr8.gr8gr8gr8gr8d+8f8<a+8r>fr8fr8fr8fr8.dr8fr8gr8gr8>crc8r1.r1.r1<fr<f8a+8fd+rfb+ra+8>fr<<a+8>f8a+8fb+rf>crdrfrfr<f8a+8fd+rfd+ra+8>f8<<a+8>f8a+8fb+rf>crdrfrfr<f8d8fd+rfb+rfrdrn22rf8a+8fd+rfd+ra+8>frfrd8<a+8fd+rfd+l8r.n46a+2b+rg,v12<d+l16rn34rd+8r4gr8d7r9<a+r8a+r2>d+4r8.ar8ar8fr8f+8r8f+r8g8rr4.g4rn34rg8r4gr8d7r9cr8n34r2d+4r8.ar8fr8ar8f+8r8>cr8f8rr4.<a+r8d+r8a+r8>drd<d+8d+rar8ar8d+r8ard+a8ardr8ar8dr8dr8b+r1r8.a+r8cr8a+r8a+r8grcrdr8dr8dr8dr8drard+r8a+r8d+r8d+r8d+rd+rgr8gr8gr8a+r8a+rgrb+r8fr8fr8.frb+rfr>c+r8gr8<fr8.frn49r8.d+4rn34rg8r4d+r8d7r9<a+r8a+r2>d+4r8.fr8fr8ar8a8r8f+r8g8rr4.d+4rgrd+8r4d+r8d7r9<a+r8a+r2>g4r8.fr8ar8ar8f+8r8b+r8g8rr4.>dr8n39r8dr8<a+ra+d+8d+rar8ar8d+r8d+rd+a8arb+r8ar8b+r8dr8>cr1r8.dr8<cr8a+r8a+r4crdr8dr8dr8dr8drard+r8a+r8d+r8d+r8d+rd+rgr8a+r8gr8gr8grgrb+r8fr8>cr8.cr<fr>fr<fr2.r8.d+r8cr8cr8cr8d+rfrc19.r9cr8gr8gr8d+8e8dr8a+r8a+r8a+r8fr8.dr8dr8a+r8fr8f8a+8d+8rd+r8b+r8d+r8b+r8.d+r8b+r8d+r8d+r8<g+8a8>a+8ra+r8a+r8a+r8dr8.fr8dr8a+r8d+r8>frf8r1.r1.r1o1a+r8.>d8rb+r8d+r>drd8fr8.<d8rd+r8d+ra+8>d8n22r8.<d8r>cr8crdrd8fr8.<d8rd+r8d+ra+8>drn22r8.<a+8rb+r8d+r>d8frfr8.<d8r>cr8crdrd8n22r<f8d8r>cr8c;
name=guitar
program=0
songProgram=-2
panpot=64
visible=true
